X:1
T: Vals från Bretagne
R: Vals
N: Från spillefolk.dk
M: 3/4
L: 1/8
Q:1/4=161
K:Amix
"Em"E2F2G2|"A"A4GA|"G"B4A2|G2F2G2|"D"A6|"Em"B2c2A2|"G"G4F2|"A"E6-|E6:|
|:"Em"B2c2d2|e4de|"A"dcB2A2|"D"Td4cd|"A"e6|"Em"dcB2A2|"G"B2A2G2|"A"A6-|A6:|

